!!!!SEGMENT: pl-kk--kk-i-1--005-002_anonim--missa-gaude-virgo-et-in-terra.krn
!!!cenid: 15xx:674
!!!COM: Anonim
!!!COM-rismID: pe30004985
!!!CDT:
!!!CNT:
!!!OPR: [Missa] Gaude virgo
!!!OTL: Et in terra
!!!OMV: 002
!!!PDT:
!!!AGN:
!!!SMS-siglum: PL-Kk
!!!SMS-shelfmark: Kk.I.1
!!!SMS-shelfwork: 005-002 M
!!!SMS-variant:
!!!SMS-altvar:
!!!NIFC-rismSourceID: 300257954
!!!NIFC-rismChildID: 300257959
!!!NIFC-islandoraID: pl-kk:1
!!!URL-pdf-islandora: https://repozytorium.nifc.pl/islandora/object/pl-kk%3A1/datastream/PDF/view
!!!URL-scan: https://polish.musicsources.pl/pl/lokalizacje/galeria/rekopisy/5736 @EN{Scan on Polish Music Sources Website} @PL{Skany w portalu Dziedzictwo Muzyki Polskiej w otwartym dostępie}
!!!ONB-nifc: UWAGA: Cantus (s. 30v-41r, skan 0033-0043), Altus (s. 31v-42v, skan 0224-0235), Tenor (s. 31r-42r, skan 0419-0430), Bassus (s. 30v-40r, skan 0592-0601). Części Mszy: 1. Kyrie, 2. Et in terra, 3. Patrem, 4. Sanctus, 5. Agnus Dei
!!!AIN: 3 empty 1 tenor
!!!key:
**kern	**text	**kern	**text	**kern	**text	**kern	**text
*part4	*part4	*part3	*part3	*part2	*part2	*part1	*part1
*staff4	*staff4	*staff3	*staff3	*staff2	*staff2	*staff1	*staff1
*Iempty	*	*Itenor	*	*Iempty	*	*Iempty	*
*I"BASSVS	*	*I"TENOR	*	*I"ALTVS	*	*I"CANTVS	*
*I'B	*	*I'T	*	*I'A	*	*I'C	*
*ICvox	*	*ICvox	*	*ICvox	*	*ICvox	*
*clefC4	*	*clefC2	*	*clefC2	*	*clefC2	*
*k[b-]	*	*k[b-]	*	*k[b-]	*	*k[b-]	*
*F:	*	*F:	*	*F:	*	*F:	*
*M2/1	*	*M2/1	*	*M2/1	*	*M2/1	*
*met(C|)	*	*	*	*	*	*	*
=1-	=1-	=1-	=1-	=1-	=1-	=1-	=1-
*xywh-#593:5698,1336,4287,878	*	*xywh-#421:5686,1980,4313,1098	*	*xywh-#225:5868,2047,4283,900	*	*xywh-#35:1160,1362,4306,907	*
!	!	!LO:TX:a:t=14	!	!	!	!	!
00r	.	00r	.	0B-/	Et	0r	.
=2-	=2-	=2-	=2-	=2-	=2-	=2-	=2-
!	!	!	!	!	!	!LO:TX:t=P:problem=kreska pseudotaktowa	!
.	.	.	.	1G/	in	0B-/	ET
!	!	!	!	!LO:TX:t=P:problem=kreska pseudotaktowa	!	!	!
.	.	.	.	1d/	ter-	.	.
=3-	=3-	=3-	=3-	=3-	=3-	=3-	=3-
!	!	!	!	!	!	!LO:TX:t=P:problem=kreska pseudotaktowa	!
00r	.	00r	.	1B-/	-ra	1G/	in
.	.	.	.	1f\	pax	1d/	ter-
=4-	=4-	=4-	=4-	=4-	=4-	=4-	=4-
.	.	.	.	2d/	.	1B-/	-ra
*	*	*	*	*2\in the middl	*	*	*
.	.	.	.	2.f\	ho-	.	.
.	.	.	.	.	.	1f\	pax-
.	.	.	.	4e/	-mi-	.	.
.	.	.	.	4d/	-ni-	.	.
!	!	!	!	!LO:TX:t=P:problem=kreska pseudotaktowa	!	!	!
.	.	.	.	4c/	.	.	.
=5-	=5-	=5-	=5-	=5-	=5-	=5-	=5-
00r	.	00r	.	4B-/	.	2.d/	-ho-
.	.	.	.	4A/	.	.	.
!	!	!	!	!LO:TX:t=P:problem=kreska pseudotaktowa	!	!	!
.	.	.	.	2B-/	.	.	.
!	!	!	!	!	!	!LO:TX:t=P:problem=kreska pseudotaktowa	!
.	.	.	.	.	.	4e/	-mi-
.	.	.	.	2.A/	.	4f/	.
.	.	.	.	.	.	4e/	-ni-
.	.	.	.	.	.	1f\	-bus,
!	!	!	!	!LO:TX:t=P:problem=kreska pseudotaktowa	!	!	!
.	.	.	.	4B-/	.	.	.
=6-	=6-	=6-	=6-	=6-	=6-	=6-	=6-
.	.	.	.	2c/	.	.	.
.	.	.	.	2.d/	.	4e/	.
.	.	.	.	.	.	4d/	.
.	.	.	.	.	.	2e/	.
.	.	.	.	8c/L	.	.	.
.	.	.	.	8B-/J	.	.	.
*	*	*	*	*custos:d	*	*	*
!LO:TX:t=P:problem=kreska pseudotaktowa	!	!	!	!	!	!	!
.	.	.	.	2c/	.	2e/	.
!	!	!	!	!LO:LB:g=original	!	!	!
=7-	=7-	=7-	=7-	=7-	=7-	=7-	=7-
*	*	*	*	*xywh-#225:5799,2741,4317,951	*	*	*
!	!	!LO:TX:t=P:problem=kreska pseudotaktowa	!	!LO:TX:t=P:problem=kreska pseudotaktowa	!	!LO:TX:t=P:problem=kreska pseudotaktowa	!
0B-\	Bo-	0r	.	00d\	-bus,	0d/	.
=8-	=8-	=8-	=8-	=8-	=8-	=8-	=8-
1G/	-ne	0B-/	Bo-	.	.	00r	.
!LO:TX:t=P:problem=kreska pseudotaktowa	!	!	!	!	!	!	!
1d\	.	.	.	.	.	.	.
=9-	=9-	=9-	=9-	=9-	=9-	=9-	=9-
!	!	!LO:TX:t=P:problem=kreska pseudotaktowa	!	!	!	!	!
1B-\	uo-	1G/	-ne	00r	.	.	.
*2\in the middle	*	*	*	*	*	*	*
2.f\	-lun-	1d/	.	.	.	.	.
!LO:TX:t=P:problem=kreska pseudotaktowa	!	!	!	!	!	!	!
4e\	.	.	.	.	.	.	.
=10-	=10-	=10-	=10-	=10-	=10-	=10-	=10-
!	!	!LO:TX:t=P:problem=kreska pseudotaktowa	!	!	!	!	!
4d\	-ta-	1B-/	vo-	.	.	0r	.
4c\	.	.	.	.	.	.	.
2.d\	.	.	.	.	.	.	.
.	.	1f\	-lun-	.	.	.	.
4c\	.	.	.	.	.	.	.
4B-/	.	.	.	.	.	.	.
!LO:TX:t=P:problem=kreska pseudotaktowa	!	!	!	!	!	!	!
4A/	.	.	.	.	.	.	.
=11-	=11-	=11-	=11-	=11-	=11-	=11-	=11-
!	!	!	!	!LO:TX:t=P:problem=kreska pseudotaktowa	!	!	!
2G/	.	2e-X/	-ta-	1r	.	2r	.
!	!	!LO:TX:t=P:problem=kreska pseudotaktowa	!	!	!	!LO:TX:t=P:problem=kreska pseudotaktowa	!
2F/	.	2.d/	-tis,	.	.	2d/	lau-
*	*	*	*	*	*	*custos:a	*
1E/	.	.	.	2r	.	1g\	-da-
.	.	4c/	.	.	.	.	.
.	.	4c/	.	1g\	lau-	.	.
.	.	4B-/	.	.	.	.	.
!	!	!	!	!	!	!LO:LB:g=original	!
=12-	=12-	=12-	=12-	=12-	=12-	=12-	=12-
*	*	*	*	*	*	*xywh-#35:1218,2073,4207,936	*
!LO:TX:t=P:problem=kreska pseudotaktowa	!	!LO:TX:t=P:problem=kreska pseudotaktowa	!	!	!	!	!
1D/	-tis,	0d/	.	.	.	1a\	-mus
!	!	!	!	!LO:TX:t=P:problem=kreska pseudotaktowa	!	!	!
.	.	.	.	2f\	.	.	.
!	!	!	!	!	!	!LO:TX:t=P:problem=kreska pseudotaktowa	!
1r	.	.	.	1b-\	-da-	1g\	te,
=13-	=13-	=13-	=13-	=13-	=13-	=13-	=13-
*custos:G	*	*	*	*	*	*	*
1D/	be-	1r	.	2a\	-mus	2r	.
*	*	*	*	*	*	*2\in the middle	*
!	!	!	!	!LO:TX:t=P:problem=kreska pseudotaktowa	!	!	!
.	.	.	.	2d/	te,	2f\	be-
*xywh-#593:5738,2048,4179,969	*	*	*	*	*	*	*
!LO:LB:g=original	!	!	!	!	!	!	!
2G/	-ne-	2r	.	2d/	be-	2b-\	-ne-
!	!	!	!	!LO:TX:t=P:problem=kreska pseudotaktowa	!	!LO:TX:t=P:problem=kreska pseudotaktowa	!
2G/	-di-	1g\	be-	2d/	-ne-	2b-\	-di-
=14-	=14-	=14-	=14-	=14-	=14-	=14-	=14-
2A/	-ci-	.	.	2c/	-di-	2a\	  ci-
*	*	*2\in the middle	*	*	*	*	*
!	!	!LO:TX:t=P:problem=kreska pseudotaktowa	!	!LO:TX:t=P:problem=kreska pseudotaktowa	!	!	!
2A/	-mus-	2f\	-ne-	2c/	-ci-	2a\	-mus
*	*	*custos:g	*	*	*	*	*
!LO:TX:t=P:problem=kreska pseudotaktowa	!	!	!	!	!	!	!
1G/	-te,	2g\	-di-	2d/	-mus	2d/	te,
*	*	*xywh-#421:5697,2792,4318,1098	*	*	*	*	*
!	!	!LO:LB:g=original	!	!	!	!	!
!	!	!LO:TX:t=P:problem=kreska pseudotaktowa	!	!LO:TX:t=P:problem=kreska pseudotaktowa	!	!	!
.	.	2g\	-ci-	2d/	te;	1g\	a-
=15-	=15-	=15-	=15-	=15-	=15-	=15-	=15-
*	*	*	*	*	*ij	*	*
1r	.	1a\	-mus	2d/	be-	.	.
.	.	.	.	2d/	-ne-	2f\	-do-
!	!	!LO:TX:t=P:problem=kreska pseudotaktowa	!	!	!	!LO:TX:t=P:problem=kreska pseudotaktowa	!
2r	.	1g\	te,	2e-X/	-di-	1g\	-ra-
1G/	a-	.	.	4d/	-ci-	.	.
!	!	!	!	!LO:TX:t=P:problem=kreska pseudotaktowa	!	!	!
.	.	.	.	4c/	.	.	.
=16-	=16-	=16-	=16-	=16-	=16-	=16-	=16-
*	*	*	*	*custos:c	*	*	*
.	.	1r	.	2B-/	-mus	1e-X\	-mus
*	*	*	*	*	*Xij	*	*
*	*	*	*	*xywh-#226:1177,534,4268,959	*	*	*
!	!	!	!	!LO:PB:g=original	!	!	!
!LO:TX:t=P:problem=kreska pseudotaktowa	!	!	!	!LO:TX:t=P:problem=kreska pseudotaktowa	!	!	!
2C/	-do-	.	.	2c/	te,	.	.
!	!	!	!	!	!	!LO:TX:t=P:problem=kreska pseudotaktowa	!
1G/	-ra-	2r	.	2r	.	1d/	te,
.	.	1d/	a-	1g\	a-	.	.
=17-	=17-	=17-	=17-	=17-	=17-	=17-	=17-
1A\	-mus-	.	.	.	.	2r	.
!	!	!LO:TX:t=P:problem=kreska pseudotaktowa	!	!LO:TX:t=P:problem=kreska pseudotaktowa	!	!LO:TX:t=P:problem=kreska pseudotaktowa	!
.	.	2c/	-do-	2f/	-do-	2a\	glo-
!LO:TX:t=P:problem=kreska pseudotaktowa	!	!	!	!	!	!	!
1G/	-te,	2d/	-ra-	1g\	-ra-	2b-\	-ri-
.	.	2eny/	-mus	.	.	2.g\	-fi-
=18-	=18-	=18-	=18-	=18-	=18-	=18-	=18-
!	!	!LO:TX:t=P:problem=kreska pseudotaktowa	!	!	!	!	!
2r	.	1d/	te,	1a\	-mus	.	.
.	.	.	.	.	.	4f\	-ca-
!	!	!	!	!	!	!LO:TX:t=P:problem=kreska pseudotaktowa	!
2D/	glo-	.	.	.	.	2f\	-mus
2G/	-ri-	1d/	glo-	2g\	te,	1b-\	.
!LO:TX:t=P:problem=kreska pseudotaktowa	!	!	!	!LO:TX:t=P:problem=kreska pseudotaktowa	!	!	!
2G/	-fi-	.	.	2g\	glo-	.	.
=19-	=19-	=19-	=19-	=19-	=19-	=19-	=19-
*	*	*	*	*	*	*custos:d	*
!	!	!	!	!	!	!LO:TX:t=P:problem=kreska pseudotaktowa	!
2A/	-ca-	2c/	-ri-	2g\	-ri-	1a\	te,
!	!	!LO:TX:t=P:problem=kreska pseudotaktowa	!	!	!	!	!
2A/	-mus	2c/	-fi-	2f\	-fi-	.	.
!LO:TX:t=P:problem=kreska pseudotaktowa	!	!	!	!LO:TX:t=P:problem=kreska pseudotaktowa	!	!	!
0G/	te;	4d/	-ca-	0g\	-ca-	2r	.
.	.	4c/	.	.	.	.	.
*	*	*	*	*	*	*xywh-#35:1241,2801,4202,1017	*
!	!	!	!	!	!	!LO:LB:g=original	!
!	!	!	!	!	!	!LO:TX:t=P:problem=kreska pseudotaktowa	!
.	.	4B-/	.	.	.	2d/	glo-
!	!	!LO:TX:t=P:problem=kreska pseudotaktowa	!	!	!	!	!
.	.	4A/	.	.	.	.	.
=20-	=20-	=20-	=20-	=20-	=20-	=20-	=20-
.	.	1B-/	.	.	.	2d/	-ri-
!	!	!	!	!	!	!LO:TX:t=P:problem=kreska pseudotaktowa	!
.	.	.	.	.	.	2d/	-fi-
*custos:D	*	*	*	*	*	*	*
*	*ij	*	*	*	*	*	*
1D/	glo-	2A/	-mus	1a\	-mus	4f/	-ca-
.	.	.	.	.	.	4eny/	.
!	!	!LO:TX:t=P:problem=kreska pseudotaktowa	!	!	!	!	!
.	.	2d/	te,	.	.	4f/	.
!	!	!	!	!	!	!LO:TX:t=P:problem=kreska pseudotaktowa	!
.	.	.	.	.	.	4g\	.
!LO:LB:g=original	!	!	!	!	!	!	!
=21-	=21-	=21-	=21-	=21-	=21-	=21-	=21-
*xywh-#593:5698,2830,4253,969	*	*	*	*	*	*	*
*	*	*custos:d	*	*	*	*	*
*	*	*	*ij	*	*	*	*
2D/	-ri-	2f/	glo-	2d/	te,	4a\	.
.	.	.	.	.	.	4b-\	.
*	*	*xywh-#422:1148,588,4271,893	*	*	*	*	*
!	!	!LO:PB:g=original	!	!	!	!	!
!	!	!LO:TX:t=P:problem=kreska pseudotaktowa	!	!LO:TX:t=P:problem=kreska pseudotaktowa	!	!	!
2D/	-fi-	2d/	.	2.f/	.	2.a\	.
2F/	-ca-	4c/	-ri-	.	.	.	.
.	.	4B-/	.	4eny/	.	4g\	.
2G/	-mus	4A/	.	4d/	.	1g\	.
.	.	4G/	.	4c/	.	.	.
=22-	=22-	=22-	=22-	=22-	=22-	=22-	=22-
!LO:TX:t=P:problem=kreska pseudotaktowa	!	!LO:TX:t=P:problem=kreska pseudotaktowa	!	!LO:TX:t=P:problem=kreska pseudotaktowa	!	!	!
1D/	te	1A/	.	0d/	.	.	.
*	*Xij	*	*	*	*	*	*
.	.	.	.	.	.	2f\	-mus
!	!	!	!	!	!	!LO:TX:t=P:problem=kreska pseudotaktowa	!
1r	.	2.G/	-fi-	.	.	0.g\	te,
!	!	!LO:TX:t=P:problem=kreska pseudotaktowa	!	!	!	!	!
.	.	4A/	.	.	.	.	.
=23-	=23-	=23-	=23-	=23-	=23-	=23-	=23-
1G/	Gra-	4B-/	.	1r	.	.	.
.	.	4c/	.	.	.	.	.
.	.	2.d/	-ca-	.	.	.	.
2G/	-ti-	.	.	2r	.	.	.
.	.	4c/	.	.	.	.	.
*	*	*	*	*custos:d	*	*	*
!LO:TX:t=P:problem=kreska pseudotaktowa	!	!LO:TX:t=P:problem=kreska pseudotaktowa	!	!	!	!	!
2G/	-as	2B-/	-mus	1d/	Gra-	.	.
=24-	=24-	=24-	=24-	=24-	=24-	=24-	=24-
2.F/	a-	1A/	te	.	.	0r	.
*	*	*	*Xij	*	*	*	*
*	*	*	*	*xywh-#226:1160,1319,4314,886	*	*	*
!	!	!	!	!LO:LB:g=original	!	!	!
!	!	!	!	!LO:TX:t=P:problem=kreska pseudotaktowa	!	!	!
.	.	.	.	2d/	-ti-	.	.
4G/	-gi-	.	.	.	.	.	.
!LO:TX:t=P:problem=kreska pseudotaktowa	!	!	!	!	!	!	!
1A\	.	1r	.	1c/	-as	.	.
=25-	=25-	=25-	=25-	=25-	=25-	=25-	=25-
!	!	!	!	!	!	!LO:TX:t=P:problem=kreska pseudotaktowa	!
2F/	-mus	1r	.	2d/	a-	1r	.
!	!	!	!	!LO:TX:t=P:problem=kreska pseudotaktowa	!	!	!
2.G/	.	.	.	2.e/	-gi-	.	.
.	.	2r	.	.	.	1g\	Gra-
4F/	ti-	.	.	4d/	-mus	.	.
4E/	.	1G/	Gra-	1d/	.	.	.
!LO:TX:t=P:problem=kreska pseudotaktowa	!	!	!	!	!	!	!
4D/	.	.	.	.	.	.	.
=26-	=26-	=26-	=26-	=26-	=26-	=26-	=26-
1E/	.	.	.	.	.	2g\	-ti-
!	!	!LO:TX:t=P:problem=kreska pseudotaktowa	!	!LO:TX:t=P:problem=kreska pseudotaktowa	!	!LO:TX:t=P:problem=kreska pseudotaktowa	!
.	.	2G/	-ti-	2c/	.	2g\	-as
!LO:TX:t=P:problem=kreska pseudotaktowa	!	!	!	!	!	!	!
0D/	-bi	2B-/	-as	0d/	ti-	1.f\	a-
.	.	4A/	.	.	.	.	.
!	!	!LO:TX:t=P:problem=kreska pseudotaktowa	!	!	!	!	!
.	.	4G/	.	.	.	.	.
=27-	=27-	=27-	=27-	=27-	=27-	=27-	=27-
*custos:G	*	*	*	*	*	*	*
.	.	4F/	.	.	.	.	.
*	*	*custos	*	*	*	*	*
!	!	!LO:LB:g=original	!	!	!	!	!
.	.	4G/	.	.	.	.	.
*	*	*xywh-#422:1159,1324,4231,916	*	*	*	*	*
!	!	!LO:LB:g=original	!	!	!	!	!
!	!	!	!	!	!	!LO:TX:t=P:problem=kreska pseudotaktowa	!
.	.	4A/	.	.	.	2d/	-gi-
!	!	!LO:TX:t=P:problem=kreska pseudotaktowa	!	!	!	!	!
.	.	4B-/	.	.	.	.	.
!LO:TX:b:t=4	!	!	!	!LO:TX:t=P:problem=kreska pseudotaktowa	!	!	!
1r	.	4c/	.	1A/	-bi,	1e\	-mus
.	.	4d/	.	.	.	.	.
.	.	4e/	.	.	.	.	.
!	!	!LO:TX:t=P:problem=kreska pseudotaktowa	!	!	!	!	!
.	.	4c/	.	.	.	.	.
=28-	=28-	=28-	=28-	=28-	=28-	=28-	=28-
!	!	!	!	!	!	!LO:TX:t=P:problem=kreska pseudotaktowa	!
0r	.	2d/	.	00r	.	2f/	ti-
*	*	*	*	*	*	*xywh-#35:5772,628,4416,982	*
!	!	!	!	!	!	!LO:PB:g=original	!
.	.	2.e/	a-	.	.	2.g\	.
.	.	4d/	-gi-	.	.	4f\	.
.	.	1d/	-mus	.	.	4e/	.
!	!	!	!	!	!	!LO:TX:t=P:problem=kreska pseudotaktowa	!
.	.	.	.	.	.	4d/	.
=29-	=29-	=29-	=29-	=29-	=29-	=29-	=29-
!LO:TX:t=P:problem=kreska pseudotaktowa	!	!	!	!	!	!	!
1r	.	.	.	.	.	1e\	.
!	!	!LO:TX:t=P:problem=kreska pseudotaktowa	!	!	!	!	!
.	.	2c/	.	.	.	.	.
*xywh-#594:1179,502,4263,943	*	*	*	*	*	*	*
!LO:PB:g=original	!	!	!	!	!	!	!
1.G/	prop-	1d/	.	.	.	2d/	.
.	.	.	.	.	.	2.b-\	.
=30-	=30-	=30-	=30-	=30-	=30-	=30-	=30-
.	.	1.B-/	.	1.d/	prop-	.	.
.	.	.	.	.	.	4a\	.
!LO:TX:t=P:problem=kreska pseudotaktowa	!	!	!	!	!	!	!
2G/	-ter	.	.	.	.	4g\	.
!	!	!	!	!	!	!LO:TX:t=P:problem=kreska pseudotaktowa	!
.	.	.	.	.	.	4f\	.
1G/	ma-	.	.	.	.	1g\	-bi,
!	!	!	!	!LO:TX:t=P:problem=kreska pseudotaktowa	!	!	!
.	.	4A/	ti-	2d/	-ter	.	.
.	.	4G/	-bi,	.	.	.	.
=31-	=31-	=31-	=31-	=31-	=31-	=31-	=31-
!	!	!LO:TX:t=P:problem=kreska pseudotaktowa	!	!	!	!LO:TX:t=P:problem=kreska pseudotaktowa	!
2D/	.	1A/	.	2.d/	ma-	1f\	.
1F/	-gnam	.	.	.	.	.	.
.	.	.	.	8c/L	.	.	.
.	.	.	.	8B-/J	.	.	.
.	.	0r	.	2A/	-gnam	0r	.
!LO:TX:t=P:problem=kreska pseudotaktowa	!	!	!	!	!	!	!
2G/	.	.	.	1d/	.	.	.
=32-	=32-	=32-	=32-	=32-	=32-	=32-	=32-
1A\	.	.	.	.	.	.	.
!	!	!	!	!LO:TX:t=P:problem=kreska pseudotaktowa	!	!	!
.	.	.	.	2c/	glo-	.	.
4G/	glo-	1.g\	prop-	4e/	-ri-	2r	.
!	!	!	!	!LO:TX:t=P:problem=kreska pseudotaktowa	!	!	!
4F/	-r-	.	.	4d/	-am	.	.
*	*	*	*	*xywh-#226:1160,2081,4353,869	*	*	*
!	!	!	!	!LO:LB:g=original	!	!	!
4E/	-am	.	.	1d/	.	1G/	prop-
!LO:TX:t=P:problem=kreska pseudotaktowa	!	!	!	!	!	!	!
4D/	.	.	.	.	.	.	.
=33-	=33-	=33-	=33-	=33-	=33-	=33-	=33-
1E/	tu-	.	.	.	.	.	.
!	!	!LO:TX:t=P:problem=kreska pseudotaktowa	!	!	!	!LO:TX:t=P:problem=kreska pseudotaktowa	!
.	.	2g\	-ter	2c/	tu-	2G/	-ter
!LO:TX:t=P:problem=kreska pseudotaktowa	!	!	!	!LO:TX:t=P:problem=kreska pseudotaktowa	!	!	!
0D/	-am,	1.f\	ma-	0d/	-a(m),	2B-/	.
.	.	.	.	.	.	4A/	.
!	!	!	!	!	!	!LO:TX:t=P:problem=kreska pseudotaktowa	!
.	.	.	.	.	.	4G/	.
=34-	=34-	=34-	=34-	=34-	=34-	=34-	=34-
.	.	.	.	.	.	4F/	ma-
.	.	.	.	.	.	4G/	.
*	*	*custos:e	*	*	*	*	*
!	!	!LO:TX:t=P:problem=kreska pseudotaktowa	!	!	!	!	!
.	.	2d/	-gna(m)	.	.	4A/	-gnam
!	!	!	!	!	!	!LO:TX:t=P:problem=kreska pseudotaktowa	!
.	.	.	.	.	.	4B-/	.
*	*	*xywh-#422:1204,2038,4243,949	*	*	*	*	*
!	!	!LO:LB:g=original	!	!	!	!	!
!LO:TX:a:t=4	!	!	!	!	!	!	!
1r	.	1e\	glo-	0r	.	4c/	.
.	.	.	.	.	.	4d/	.
.	.	.	.	.	.	4e/	.
*	*	*	*	*	*	*custos:d	*
!	!	!	!	!	!	!LO:TX:t=P:problem=kreska pseudotaktowa	!
.	.	.	.	.	.	4c/	.
!	!	!	!	!	!	!LO:LB:g=original	!
=35-	=35-	=35-	=35-	=35-	=35-	=35-	=35-
*	*	*	*	*	*	*xywh-#35:5779,1391,4294,919	*
0r	.	2f\	-ri-	.	.	2d/	.
!	!	!LO:TX:t=P:problem=kreska pseudotaktowa	!	!	!	!	!
.	.	2.g\	-am	.	.	2.e/	glo-
.	.	.	.	2r	.	.	.
.	.	4f\	.	.	.	4e/	-ri-
.	.	2d/	tu-	1d/	Do-	2d/	-am
=36-	=36-	=36-	=36-	=36-	=36-	=36-	=36-
!LO:TX:t=P:problem=kreska pseudotaktowa	!	!LO:TX:t=P:problem=kreska pseudotaktowa	!	!	!	!	!
1r	.	1e\	-am,	.	.	1g\	tu-
!	!	!	!	!LO:TX:t=P:problem=kreska pseudotaktowa	!	!	!
.	.	.	.	2c/	-mi-	.	.
!	!	!	!	!	!	!LO:TX:t=P:problem=kreska pseudotaktowa	!
2r	.	2d/	.	2d/	-ne	1f\	-a(m),
1d\	Do-	2d/	Do-	2B-/	de-	.	.
=37-	=37-	=37-	=37-	=37-	=37-	=37-	=37-
!	!	!	!	!LO:TX:t=P:problem=kreska pseudotaktowa	!	!	!
.	.	2e/	-mi-	1A/	-us,	1r	.
!LO:TX:t=P:problem=kreska pseudotaktowa	!	!LO:TX:t=P:problem=kreska pseudotaktowa	!	!	!	!	!
2c\	-mi-	2e/	-ne	.	.	.	.
1d\	-ne	1.f\	de-	1r	.	2r	.
.	.	.	.	.	.	1a\	Do-
=38-	=38-	=38-	=38-	=38-	=38-	=38-	=38-
1B-\	de-	.	.	1d/	rex	.	.
!	!	!	!	!	!	!LO:TX:t=P:problem=kreska pseudotaktowa	!
.	.	4e\	-us	.	.	2g\	.
!	!	!LO:TX:t=P:problem=kreska pseudotaktowa	!	!	!	!	!
.	.	4d/	.	.	.	.	.
*custos:D	*	*	*	*	*	*	*
!LO:TX:t=P:problem=kreska pseudotaktowa	!	!	!	!LO:TX:t=P:problem=kreska pseudotaktowa	!	!	!
1A\	-us	0c/	rex	1f\	ce-	2a\	-mi-
.	.	.	.	.	.	2.cc\	-ne
=39-	=39-	=39-	=39-	=39-	=39-	=39-	=39-
1r	.	.	.	1e\	-leſ-	.	.
.	.	.	.	.	.	4b-\	.
.	.	.	.	.	.	4a\	de-
!	!	!	!	!	!	!LO:TX:t=P:problem=kreska pseudotaktowa	!
.	.	.	.	.	.	4g\	.
*xywh-#594:1146,1340,4273,898	*	*	*	*	*	*	*
!LO:LB:g=original	!	!	!	!	!	!	!
!	!	!LO:TX:t=P:problem=kreska pseudotaktowa	!	!	!	!	!
1D/	rex	0A/	coe-	2d/	-tis	2f\	-us
.	.	.	.	2.f\	.	2d/	.
=40-	=40-	=40-	=40-	=40-	=40-	=40-	=40-
1F/	c(ae)-	.	.	.	.	1a\	.
.	.	.	.	4e/	de-	.	.
!	!	!	!	!LO:TX:t=P:problem=kreska pseudotaktowa	!	!	!
.	.	.	.	2.d/	-us	.	.
!	!	!	!	!	!	!LO:TX:t=P:problem=kreska pseudotaktowa	!
1E-X/	-leſ-	2B-/	-leſ-	.	.	1g\	rex
.	.	.	.	8c/L	.	.	.
.	.	.	.	8B-/J	.	.	.
*	*	*	*	*custos:d	*	*	*
.	.	2G/	-tis,	2c/	.	.	.
!	!	!	!	!LO:LB:g=original	!	!	!
=41-	=41-	=41-	=41-	=41-	=41-	=41-	=41-
*	*	*	*	*xywh-#226:1160,2770,4347,1321	*	*	*
!LO:TX:t=P:problem=kreska pseudotaktowa	!	!LO:TX:t=P:problem=kreska pseudotaktowa	!	!	!	!	!
1D/	-tis	1A/	.	2.d/	.	2.f\	coe-
.	.	.	.	8c/L	pa-	8e/L	-le-
.	.	.	.	8B-/J	.	8d/J	.
!	!	!	!	!LO:TX:t=P:problem=kreska pseudotaktowa	!	!	!
2r	.	2r	.	2A/	-ter	2c/	.
!	!	!LO:TX:t=P:problem=kreska pseudotaktowa	!	!	!	!	!
*	*	*	*ij	*	*	*	*
2F/	de-	2a\	rex	2f\	om	2d/	.
=42-	=42-	=42-	=42-	=42-	=42-	=42-	=42-
*	*	*	*	*	*	*custos:e	*
*	*	*custos:b-	*	*	*	*	*
!LO:TX:t=P:problem=kreska pseudotaktowa	!	!	!	!	!	!LO:TX:t=P:problem=kreska pseudotaktowa	!
1G/	-us	2g\	coe-	2e/	.	1e\	-ſtis,
*	*	*xywh-#422:1227,2847,4293,842	*	*	*	*	*
!	!	!LO:LB:g=original	!	!	!	!	!
.	.	2b-\	-leſ-	1d/	ni-	.	.
*	*	*	*	*	*	*xywh-#35:5721,2084,4306,971	*
!	!	!	!	!	!	!LO:LB:g=original	!
!	!	!LO:TX:t=P:problem=kreska pseudotaktowa	!	!	!	!	!
1A\	pa-	1a\	-tis	.	.	1e\	.
*	*	*	*Xij	*	*	*	*
!	!	!	!	!LO:TX:t=P:problem=kreska pseudotaktowa	!	!	!
.	.	.	.	2c/	-po-	.	.
=43-	=43-	=43-	=43-	=43-	=43-	=43-	=43-
!	!	!	!	!LO:TX:t=P:problem=kreska pseudotaktowa	!	!	!
4D/	-ter	2r	.	1d/	-tens,	2.f/	.
4Eny/	.	.	.	.	.	.	.
4F/	.	2.a\	.	.	.	.	.
!LO:TX:t=P:problem=kreska pseudotaktowa	!	!	!	!	!	!	!
4G/	.	.	.	.	.	8e/L	de-
.	.	.	.	.	.	8d/J	.
!	!	!	!	!	!	!LO:TX:t=P:problem=kreska pseudotaktowa	!
2A\	.	.	.	1r	.	2c/	-us
.	.	4g\	de-	.	.	.	.
2B-\	.	4f\	-us	.	.	2f\	pa-
!	!	!LO:TX:t=P:problem=kreska pseudotaktowa	!	!	!	!	!
.	.	4e/	.	.	.	.	.
=44-	=44-	=44-	=44-	=44-	=44-	=44-	=44-
4B-\	om-	4d/	.	1B-/	Do-	2g\	 ter
4A\	-ni-	4c/	.	.	.	.	.
4G/	.	1f\	.	.	.	1b-\	.
!LO:TX:t=P:problem=kreska pseudotaktowa	!	!	!	!	!	!	!
4F/	.	.	.	.	.	.	.
2G/	.	.	.	2B-/	-mi-	.	.
!	!	!LO:TX:t=P:problem=kreska pseudotaktowa	!	!LO:TX:t=P:problem=kreska pseudotaktowa	!	!	!
2G/	-po-	2e/	pa-	2B-/	-ne	4a\	om-
!	!	!	!	!	!	!LO:TX:t=P:problem=kreska pseudotaktowa	!
.	.	.	.	.	.	4g\	.
=45-	=45-	=45-	=45-	=45-	=45-	=45-	=45-
*custos:F	*	*	*	*	*	*	*
!LO:TX:t=P:problem=kreska pseudotaktowa	!	!	!	!	!	!	!
1F/	-tens,-	2f/	-ter	1c/	fi-	1.a\	.
.	.	2.f/	om-	.	.	.	.
1r	.	.	.	2d/	-li	.	.
.	.	4e/	-ni-	.	.	.	.
!	!	!LO:TX:t=P:problem=kreska pseudotaktowa	!	!	!	!LO:TX:t=P:problem=kreska pseudotaktowa	!
.	.	2d/	-po-	2.f\	v-	2cc\	.
!LO:LB:g=original	!	!	!	!	!	!	!
=46-	=46-	=46-	=46-	=46-	=46-	=46-	=46-
*xywh-#594:1078,2042,4363,926	*	*	*	*	*	*	*
1F/	-Do-	2c/	-tens,	.	.	2a\	.
.	.	.	.	4e\	-ni-	.	.
!	!	!	!	!LO:TX:t=P:problem=kreska pseudotaktowa	!	!	!
.	.	2f\	.	2d/	-ge-	1b-\	-ni-
2F/	-mi-	2f\	.	2c/	-ni-	.	.
*	*	*	*	*custos:B-	*	*	*
!LO:TX:t=P:problem=kreska pseudotaktowa	!	!	!	!LO:TX:t=P:problem=kreska pseudotaktowa	!	!	!
2F/	-ne	2f\	.	2c/	.	2a\	-po-
!	!	!	!	!LO:PB:g=original	!	!	!
=47-	=47-	=47-	=47-	=47-	=47-	=47-	=47-
*	*	*	*	*xywh-#226:5818,540,4325,1022	*	*	*
!	!	!LO:TX:t=P:problem=kreska pseudotaktowa	!	!	!	!LO:TX:t=P:problem=kreska pseudotaktowa	!
1G/	fi-	1d/	.	4B-/	-te	1b-\	-te(n)s,
.	.	.	.	4c/	.	.	.
.	.	.	.	4d/	.	.	.
!	!	!	!	!LO:TX:t=P:problem=kreska pseudotaktowa	!	!	!
.	.	.	.	4e/	.	.	.
1.A\	-li	0r	.	4f\	.	1r	.
.	.	.	.	4g\	.	.	.
.	.	.	.	2.a\	.	.	.
=48-	=48-	=48-	=48-	=48-	=48-	=48-	=48-
.	.	.	.	.	.	1f\	do-
.	.	.	.	4g\	v-	.	.
1B-\	v-	.	.	4f\	.	.	.
!	!	!	!	!LO:TX:t=P:problem=kreska pseudotaktowa	!	!	!
.	.	.	.	4e/	.	.	.
!	!	!LO:TX:t=P:problem=kreska pseudotaktowa	!	!	!	!	!
.	.	1B-/	Do-	4d/	.	2f/	-mi-
.	.	.	.	4c/	-ni-	.	.
!LO:TX:t=P:problem=kreska pseudotaktowa	!	!	!	!	!	!LO:TX:t=P:problem=kreska pseudotaktowa	!
2A/	-ni-	.	.	1f\	-ge-	2f/	-ne
=49-	=49-	=49-	=49-	=49-	=49-	=49-	=49-
*	*	*custos:B-	*	*	*	*	*
1G/	-ge-	2B-/	-mi-	.	.	1g\	fi-
*	*	*xywh-#422:5767,571,4439,893	*	*	*	*	*
!	!	!LO:PB:g=original	!	!	!	!	!
!	!	!LO:TX:t=P:problem=kreska pseudotaktowa	!	!	!	!	!
.	.	2B-/	-ne	2e/	-ni-	.	.
!	!	!	!	!LO:TX:t=P:problem=kreska pseudotaktowa	!	!LO:TX:t=P:problem=kreska pseudotaktowa	!
1F/	-ni-	1c/	fi-	0f\	-te,	1a\	-li
=50-	=50-	=50-	=50-	=50-	=50-	=50-	=50-
!LO:TX:t=P:problem=kreska pseudotaktowa	!	!	!	!	!	!	!
1B-\	-te	2d/	-li	.	.	1.b-\	v-
.	.	4B-/	v-	.	.	.	.
!	!	!LO:TX:t=P:problem=kreska pseudotaktowa	!	!	!	!	!
.	.	4c/	-ni-	.	.	.	.
1r	.	4d/	.	0r	.	.	.
.	.	4e/	.	.	.	.	.
*	*	*	*	*	*	*custos:g	*
!	!	!	!	!	!	!LO:TX:t=P:problem=kreska pseudotaktowa	!
.	.	4f/	.	.	.	2a\	-ni-
!	!	!LO:TX:t=P:problem=kreska pseudotaktowa	!	!	!	!	!
.	.	4d/	.	.	.	.	.
!	!	!	!	!	!	!LO:LB:g=original	!
=51-	=51-	=51-	=51-	=51-	=51-	=51-	=51-
*	*	*	*	*	*	*xywh-#35:5709,2865,4271,1023	*
0r	.	4e/	.	.	.	4g\	-ge-
.	.	4d/	.	.	.	4f\	.
.	.	1d/	-ge-	.	.	4e/	-ni-
!	!	!	!	!	!	!LO:TX:t=P:problem=kreska pseudotaktowa	!
.	.	.	.	.	.	4d/	-te
.	.	.	.	1g\	Ie-	2e/	.
!	!	!LO:TX:t=P:problem=kreska pseudotaktowa	!	!	!	!	!
.	.	2c/	-ni-	.	.	2e/	.
=52-	=52-	=52-	=52-	=52-	=52-	=52-	=52-
!LO:TX:t=P:problem=kreska pseudotaktowa	!	!LO:TX:t=P:problem=kreska pseudotaktowa	!	!	!	!	!
1D/	Ie-	1d/	-te;	2.f\	-ſu	2d/	.
.	.	.	.	.	.	1f\	Ie-
!	!	!	!	!LO:TX:t=P:problem=kreska pseudotaktowa	!	!	!
.	.	.	.	4g\	.	.	.
*	*	*	*	*custos:b-	*	*	*
2F/	-ſu	1r	.	2a\	.	.	.
*	*	*	*	*xywh-#226:5858,1229,4251,1027	*	*	*
!	!	!	!	!LO:LB:g=original	!	!	!
2.G/	chri-	.	.	2.b-\	.	1e\	-ſu
*	*	*clefC3	*	*	*	*	*
=53-	=53-	=53-	=53-	=53-	=53-	=53-	=53-
!	!	!LO:TX:t=P:problem=kreska pseudotaktowa	!	!	!	!	!
.	.	0G/	Ie-	.	.	.	.
4F/	.	.	.	4a\	Chri-	.	.
4E/	.	.	.	4g\	.	1d/	Chri-
!LO:TX:t=P:problem=kreska pseudotaktowa	!	!	!	!LO:TX:t=P:problem=kreska pseudotaktowa	!	!	!
4D/	.	.	.	4f\	.	.	.
1E/	.	.	.	1g\	.	.	.
!	!	!	!	!	!	!LO:TX:t=P:problem=kreska pseudotaktowa	!
.	.	.	.	.	.	2c/	.
=54-	=54-	=54-	=54-	=54-	=54-	=54-	=54-
*custos:D	*	*	*	*	*	*	*
!LO:TX:t=P:problem=kreska pseudotaktowa	!	!	!	!LO:TX:t=P:problem=kreska pseudotaktowa	!	!	!
1D/	-ſte,	2B-/	-ſu	0f\	-ſte,	1d/	-ſte,
.	.	4A/	.	.	.	.	.
!	!	!LO:TX:t=P:problem=kreska pseudotaktowa	!	!	!	!	!
.	.	4G/	.	.	.	.	.
!LO:TX:t=P:problem=kreska pseudotaktowa	!	!	!	!	!	!LO:TX:t=P:problem=kreska pseudotaktowa	!
1r	.	2.F/	.	.	.	1r	.
.	.	4G/	Chri-	.	.	.	.
!LO:LB:g=original	!	!	!	!	!	!	!
=55-	=55-	=55-	=55-	=55-	=55-	=55-	=55-
*xywh-#594:1061,2744,4363,1516	*	*	*	*	*	*	*
*	*	*custos:G	*	*	*	*	*
!	!	!LO:TX:t=P:problem=kreska pseudotaktowa	!	!	!	!	!
1D/	Do-	1A/	-ſte,	2r	.	1f\	Do-
!	!	!	!	!LO:TX:t=P:problem=kreska pseudotaktowa	!	!	!
.	.	.	.	2d/	Do-	.	.
*	*	*xywh-#422:5739,1358,4259,887	*	*	*	*	*
!	!	!LO:LB:g=original	!	!	!	!	!
2E-X/	-mi-	1r	.	2c/	-mi-	2g\	-mi-
!LO:TX:t=P:problem=kreska pseudotaktowa	!	!	!	!	!	!LO:TX:t=P:problem=kreska pseudotaktowa	!
2D/	-ne	.	.	2d/	-ne	2f/	-ne
=56-	=56-	=56-	=56-	=56-	=56-	=56-	=56-
1E-/	De-	1G/	Do-	2.B-/	de-	1g\	de-
!	!	!	!	!LO:TX:t=P:problem=kreska pseudotaktowa	!	!	!
.	.	.	.	4c/	-us,	.	.
!LO:TX:t=P:problem=kreska pseudotaktowa	!	!	!	!LO:TX:t=P:problem=kreska pseudotaktowa	!	!LO:TX:t=P:problem=kreska pseudotaktowa	!
1D/	-us,	2A/	-mi-	1d/	.	1f\	-us,
.	.	2F/	-ne	.	.	.	.
=57-	=57-	=57-	=57-	=57-	=57-	=57-	=57-
1r	.	1B-/	de-	1r	.	1r	.
!	!	!LO:TX:t=P:problem=kreska pseudotaktowa	!	!	!	!	!
1.D/	a-	1A/	-us,	1.f\	a-	1.d/	a-
=58-	=58-	=58-	=58-	=58-	=58-	=58-	=58-
.	.	1r	.	.	.	.	.
!LO:TX:t=P:problem=kreska pseudotaktowa	!	!	!	!LO:TX:t=P:problem=kreska pseudotaktowa	!	!LO:TX:t=P:problem=kreska pseudotaktowa	!
2D/	-gnus	.	.	2f\	-gnus	2d/	-gnus
*	*	*	*	*	*	*lig	*
0E-X/	de-	1.G/	a-	0g\	de-	1B-/	de-
=59-	=59-	=59-	=59-	=59-	=59-	=59-	=59-
*	*	*	*	*	*	*custos:d	*
!	!	!	!	!	!	!LO:TX:t=P:problem=kreska pseudotaktowa	!
.	.	.	.	.	.	1c/	.
.	.	2A/	-gnus	.	.	.	.
!	!	!LO:TX:t=P:problem=kreska pseudotaktowa	!	!	!	!	!
*	*	*	*	*	*	*Xlig	*
*	*	*	*	*	*	*xywh-#36:1255,612,4173,925	*
!	!	!	!	!	!	!LO:PB:g=original	!
!LO:TX:t=P:problem=kreska pseudotaktowa	!	!	!	!LO:TX:t=P:problem=kreska pseudotaktowa	!	!	!
1D/	-i	2B-/	.	1f\	-i,	1d/	-i,
.	.	4A/	de-	.	.	.	.
.	.	4G/	-i;	.	.	.	.
=60-	=60-	=60-	=60-	=60-	=60-	=60-	=60-
!	!	!	!	!	!	!LO:TX:t=P:problem=kreska pseudotaktowa	!
1r	.	2.F/	.	1r	.	1r	.
.	.	4G/	.	.	.	.	.
!	!	!LO:TX:t=P:problem=kreska pseudotaktowa	!	!	!	!	!
1D/	fi-	1A/	.	1d/	fi-	1f\	fi-
=61-	=61-	=61-	=61-	=61-	=61-	=61-	=61-
*	*	*	*	*custos:d	*	*	*
2Eny/	-li-	1r	.	2c/	-li-	2g\	-li-
*	*	*	*	*xywh-#226:5852,2053,4195,920	*	*	*
!	!	!	!	!LO:LB:g=original	!	!	!
!LO:TX:t=P:problem=kreska pseudotaktowa	!	!	!	!LO:TX:t=P:problem=kreska pseudotaktowa	!	!	!
2D/	-us	.	.	2d/	-us	2f\	-us
1E/	pa-	1G/	fi-	2.B-/	pa-	1g\	pa-
.	.	.	.	4c/	.	.	.
=62-	=62-	=62-	=62-	=62-	=62-	=62-	=62-
*custos:G	*	*	*	*	*	*	*
00D/	-tris	2A/	-li-	00d/	-tris,	00f\;	-tris:
!	!	!LO:TX:t=P:problem=kreska pseudotaktowa	!	!	!	!	!
.	.	2F/	-us	.	.	.	.
.	.	1B-/	p(at)-	.	.	.	.
=63-	=63-	=63-	=63-	=63-	=63-	=63-	=63-
*	*	*custos:G	*	*	*	*	*
.	.	0Al/	-ris;	.	.	.	.
!LO:PB:g=original	!	!LO:LB:g=original	!	!	!	!	!
=64||-	=64||-	=64-	=64-	=64||-	=64||-	=64||-	=64||-
*xywh-#594:5700,587,4301,909	*	*xywh-#422:5706,2077,4293,859	*	*	*	*	*
*	*	*M2/1	*	*M2/1	*	*M2/1	*
*	*	*met(C|)	*	*met(C|)	*	*met(C|)	*
00r	.	00r	.	1G/	Qui	0r	.
.	.	.	.	2G/	tol-	.	.
!	!	!	!	!LO:TX:t=P:problem=kreska pseudotaktowa	!	!	!
.	.	.	.	2A/	-lis	.	.
=65-	=65-	=65-	=65-	=65-	=65-	=65-	=65-
.	.	.	.	2B-/	pec-	1G/	Qui
!	!	!	!	!LO:TX:t=P:problem=kreska pseudotaktowa	!	!	!
.	.	.	.	2G/	-ca-	.	.
.	.	.	.	2B-/	-ta	2G/	tol-
!	!	!	!	!LO:TX:t=P:problem=kreska pseudotaktowa	!	!LO:TX:t=P:problem=kreska pseudotaktowa	!
.	.	.	.	2c/	m(un)-	2A/	-lis
=66-	=66-	=66-	=66-	=66-	=66-	=66-	=66-
!	!	!LO:TX:t=P:problem=kreska pseudotaktowa	!	!	!	!	!
0r	.	1G/	Qui	2d/	-di,	2B-/	p(e)c-
*	*	*	*	*	*ij	*	*
.	.	.	.	1b-\	Qui	2G/	-(ca)-
.	.	2G/	tol-	.	.	2B-/	-ta
!	!	!LO:TX:t=P:problem=kreska pseudotaktowa	!	!LO:TX:t=P:problem=kreska pseudotaktowa	!	!	!
.	.	2A/	-lis	2a\	tol-	2c/	m(un)-
=67-	=67-	=67-	=67-	=67-	=67-	=67-	=67-
!LO:TX:t=P:problem=kreska pseudotaktowa	!	!	!	!	!	!LO:TX:t=P:problem=kreska pseudotaktowa	!
1G/	Qui	2B-/	pec-	2g\	-lis	0d/	-di,
.	.	2G/	-ca-	1b-\	pec-	.	.
2G/	tol-	2B-/	-ta	.	.	.	.
!LO:TX:t=P:problem=kreska pseudotaktowa	!	!	!	!	!	!	!
2A/	.	2c/	m(un)-	4a\	-ca-	.	.
*	*	*	*	*custos:f	*	*	*
!	!	!	!	!LO:TX:t=P:problem=kreska pseudotaktowa	!	!	!
.	.	.	.	4g\	-ta	.	.
!	!	!	!	!LO:LB:g=original	!	!	!
=68-	=68-	=68-	=68-	=68-	=68-	=68-	=68-
*	*	*	*	*xywh-#226:5790,2787,4336,954	*	*	*
!	!	!LO:TX:t=P:problem=kreska pseudotaktowa	!	!	!	!	!
2B-/	-lis	00d\	-di;	2f\	m(un)-	1r	.
2G/	pec-	.	.	2g\	.	.	.
!	!	!	!	!LO:TX:t=P:problem=kreska pseudotaktowa	!	!	!
2.B-/	-ca-	.	.	1f\	-di	2r	.
*	*	*	*	*	*Xij	*	*ij
.	.	.	.	.	.	2.B-/	p(e)c-
!LO:TX:t=P:problem=kreska pseudotaktowa	!	!	!	!	!	!	!
4A/	-ta	.	.	.	.	.	.
=69-	=69-	=69-	=69-	=69-	=69-	=69-	=69-
4G/	.	.	.	0r	.	.	.
4F/	.	.	.	.	.	4A/	.
1G/	.	.	.	.	.	1B-/	-(ca)-
4F/	mun-	.	.	.	.	4A/	-ta
!LO:TX:t=P:problem=kreska pseudotaktowa	!	!	!	!	!	!LO:TX:t=P:problem=kreska pseudotaktowa	!
4E/	.	.	.	.	.	4G/	.
=70-	=70-	=70-	=70-	=70-	=70-	=70-	=70-
*	*	*	*	*	*	*custos:B-	*
2F/	.	2r	.	2r	.	2A/	m(un)-
*	*	*	*	*	*	*xywh-#36:1181,1379,4366,874	*
!	!	!	!	!	!	!LO:LB:g=original	!
!	!	!	!	!LO:TX:t=P:problem=kreska pseudotaktowa	!	!	!
2G/	.	1d\	mi-	2g\	mi-	2B-/	.
!LO:TX:t=P:problem=kreska pseudotaktowa	!	!	!	!	!	!LO:TX:t=P:problem=kreska pseudotaktowa	!
1D/	-di,	.	.	1a\	-ſe-	1A/	-di
*	*	*	*	*	*	*	*Xij
!	!	!LO:TX:t=P:problem=kreska pseudotaktowa	!	!	!	!	!
.	.	2d/	-ſe-	.	.	.	.
=71-	=71-	=71-	=71-	=71-	=71-	=71-	=71-
2r	.	2.f\	 re-	4d/	-re-	1.a\	mi-
.	.	.	.	4e/	.	.	.
2D/	mi-	.	.	4f\	.	.	.
!	!	!	!	!LO:TX:t=P:problem=kreska pseudotaktowa	!	!	!
.	.	8e\L	-re	4g\	.	.	.
.	.	8d\J	.	.	.	.	.
2F/	-ſe-	2c/	no-	2a\	-re	.	.
!LO:TX:t=P:problem=kreska pseudotaktowa	!	!LO:TX:t=P:problem=kreska pseudotaktowa	!	!	!	!	!
2G/	-re-	2B-/	-bis,	2.b-\	no-	2g\	-ſe-
=72-	=72-	=72-	=72-	=72-	=72-	=72-	=72-
*custos:B-	*	*	*	*	*	*	*
1A\	-re	1c\	.	.	.	2f\	 re-
.	.	.	.	4a\	.	.	.
.	.	.	.	1a\	-bis,	2e\	-re
*xywh-#594:5654,1368,4301,926	*	*	*	*	*	*	*
!LO:LB:g=original	!	!	!	!	!	!	!
1B-\	no-	2r	.	.	.	1d/	no-
.	.	1d\	mi-	2g\	.	.	.
=73-	=73-	=73-	=73-	=73-	=73-	=73-	=73-
!LO:TX:t=P:problem=kreska pseudotaktowa	!	!	!	!LO:TX:t=P:problem=kreska pseudotaktowa	!	!LO:TX:t=P:problem=kreska pseudotaktowa	!
1A\	-bis,	.	.	1a\	.	1e\	-bis,
!	!	!LO:TX:t=P:problem=kreska pseudotaktowa	!	!	!	!	!
.	.	2c/	-ſe-	.	.	.	.
*	*	*custos:f	*	*	*	*	*
1r	.	2d/	-re-	1r	.	2r	.
*	*	*xywh-#422:5723,2802,4321,1360	*	*	*	*	*
!	!	!LO:LB:g=original	!	!	!	!	!
.	.	2.f\	-re	.	.	2d/	mi-
=74-	=74-	=74-	=74-	=74-	=74-	=74-	=74-
1D/	mi-	.	.	1.a\	mi-	2.f\	-ſe-
.	.	4e\	.	.	.	.	.
!	!	!LO:TX:t=P:problem=kreska pseudotaktowa	!	!	!	!	!
.	.	2d\	.	.	.	.	.
!	!	!	!	!	!	!LO:TX:t=P:problem=kreska pseudotaktowa	!
.	.	.	.	.	.	4g\	-re-
2F/	-ſe-	2c/	.	.	.	2a\	-re
!LO:TX:t=P:problem=kreska pseudotaktowa	!	!	!	!LO:TX:t=P:problem=kreska pseudotaktowa	!	!	!
2G/	-re-	2B-/	.	2g\	-ſe-	2.b-\	.
=75-	=75-	=75-	=75-	=75-	=75-	=75-	=75-
*	*	*	*	*custos:e	*	*	*
!	!	!LO:TX:t=P:problem=kreska pseudotaktowa	!	!	!	!	!
1A\	-re	1c\	.	2f\	-re-	.	.
.	.	.	.	.	.	4a\	.
*	*	*	*	*xywh-#227:1173,542,4364,920	*	*	*
!	!	!	!	!LO:PB:g=original	!	!	!
!	!	!	!	!LO:TX:t=P:problem=kreska pseudotaktowa	!	!	!
.	.	.	.	2.e/	-re	1a\	.
*	*	*lig	*	*	*	*	*
1B-\	.	1d\	no-	.	.	.	.
.	.	.	.	4d/	.	.	.
!	!	!	!	!	!	!LO:TX:t=P:problem=kreska pseudotaktowa	!
.	.	.	.	1d/	.	2g\	no-
=76-	=76-	=76-	=76-	=76-	=76-	=76-	=76-
1A\	no-	1e\	.	.	.	1a\	-bis,
.	.	.	.	2c/	no-	.	.
!	!	!	!	!LO:TX:t=P:problem=kreska pseudotaktowa	!	!	!
*	*	*Xlig	*	*	*	*	*
!LO:TX:t=P:problem=kreska pseudotaktowa	!	!LO:TX:t=P:problem=kreska pseudotaktowa	!	!	!	!	!
00D/	-bis;	1d\	-bis,	2d/	-bis,	2f/	.
!	!	!	!	!	!	!LO:TX:t=P:problem=kreska pseudotaktowa	!
.	.	.	.	2B-/	.	2d/	qui
=77-	=77-	=77-	=77-	=77-	=77-	=77-	=77-
!	!	!	!	!LO:TX:t=P:problem=kreska pseudotaktowa	!	!	!
.	.	1r	.	0A/	.	2d/	tol-
.	.	.	.	.	.	2e\	-lis
.	.	1d\	qui	.	.	2f\	pec-
*	*	*	*	*	*	*custos:f	*
!	!	!	!	!	!	!LO:TX:t=P:problem=kreska pseudotaktowa	!
.	.	.	.	.	.	2d/	-ca-
!	!	!	!	!	!	!LO:LB:g=original	!
=78-	=78-	=78-	=78-	=78-	=78-	=78-	=78-
*	*	*	*	*	*	*xywh-#36:1255,2083,4224,942	*
.	.	2d/	tol-	1r	.	2f\	-ta
!	!	!LO:TX:t=P:problem=kreska pseudotaktowa	!	!	!	!	!
.	.	2e\	-lis	.	.	2g\	m(un)-
!LO:TX:a:t=2	!	!	!	!	!	!LO:TX:t=P:problem=kreska pseudotaktowa	!
1r	.	2f\	pec-	1d/	Qui	0a\	-di,
.	.	2d\	-ca-	.	.	.	.
=79-	=79-	=79-	=79-	=79-	=79-	=79-	=79-
!LO:TX:t=P:problem=kreska pseudotaktowa	!	!	!	!	!	!	!
1r	.	2f\	-ta	2d/	tol-	.	.
!	!	!	!	!LO:TX:t=P:problem=kreska pseudotaktowa	!	!	!
.	.	2g\	m(un)-	2e/	.	.	.
!	!	!LO:TX:t=P:problem=kreska pseudotaktowa	!	!	!	!LO:TX:a:t=4	!
1D/	Qui	0a\	-di,	2f/	-lis	1r	.
.	.	.	.	2d/	pec-	.	.
=80-	=80-	=80-	=80-	=80-	=80-	=80-	=80-
2D/	tol-	.	.	2f\	-ca-	0r	.
!LO:TX:t=P:problem=kreska pseudotaktowa	!	!	!	!LO:TX:t=P:problem=kreska pseudotaktowa	!	!	!
2E/	-lis	.	.	2g\	-ta	.	.
2F/	pec-	0r	.	1.a\	mun-	.	.
2D/	-ca-	.	.	.	.	.	.
=81-	=81-	=81-	=81-	=81-	=81-	=81-	=81-
!	!	!	!	!	!	!LO:TX:t=P:problem=kreska pseudotaktowa	!
2F/	-ta	.	.	.	.	1r	.
2G/	m(un)-	.	.	4g\	-di	.	.
*	*	*	*	*custos:e	*	*	*
!	!	!	!	!LO:TX:t=P:problem=kreska pseudotaktowa	!	!	!
.	.	.	.	4f\	.	.	.
*custos:A	*	*	*	*	*	*	*
*	*	*	*	*xywh-#227:1184,1259,4285,959	*	*	*
!	!	!	!	!LO:LB:g=original	!	!	!
!LO:TX:t=P:problem=kreska pseudotaktowa	!	!	!	!	!	!	!
1A\	-di,	1.c\	Su-	2e/	Su-	1.a\	ſu-
.	.	.	.	1e/	-ſci-	.	.
=82-	=82-	=82-	=82-	=82-	=82-	=82-	=82-
2r	.	.	.	.	.	.	.
*xywh-#594:5632,2058,4368,926	*	*	*	*	*	*	*
!LO:LB:g=original	!	!	!	!	!	!	!
!	!	!LO:TX:t=P:problem=kreska pseudotaktowa	!	!LO:TX:t=P:problem=kreska pseudotaktowa	!	!LO:TX:t=P:problem=kreska pseudotaktowa	!
1A\	Su-	2c/	-ſci-	2e/	-pe	2a\	-ſci-
*	*	*custos:d	*	*	*	*	*
!	!	!LO:TX:t=P:problem=kreska pseudotaktowa	!	!	!	!LO:TX:t=P:problem=kreska pseudotaktowa	!
.	.	0c\	-pe;	1e\	de-	00a\	-pe,
!LO:TX:t=P:problem=kreska pseudotaktowa	!	!	!	!	!	!	!
2A/	-ſci-	.	.	.	.	.	.
=83-	=83-	=83-	=83-	=83-	=83-	=83-	=83-
!LO:TX:t=P:problem=kreska pseudotaktowa	!	!	!	!	!	!	!
1A\	-pe,	.	.	1e\	-pre-	.	.
2r	.	2r	.	2d/	-ca-	.	.
*	*ij	*	*	*	*	*	*
*	*	*xywh-#423:1250,458,4247,984	*	*	*	*	*
!	!	!LO:PB:g=original	!	!	!	!	!
1D/	Su-	1d\	de-	1f\	-tio-	.	.
=84-	=84-	=84-	=84-	=84-	=84-	=84-	=84-
!LO:TX:t=P:problem=kreska pseudotaktowa	!	!LO:TX:t=P:problem=kreska pseudotaktowa	!	!LO:TX:t=P:problem=kreska pseudotaktowa	!	!	!
2D/	-ſci-	2d/	-pre-	2f\	-nem	.	.
!LO:TX:t=P:problem=kreska pseudotaktowa	!	!	!	!	!	!	!
1D/	-pe	2.f\	-ca-	2.d/	.	2r	.
*	*Xij	*	*	*	*	*	*
!	!	!	!	!	!	!LO:TX:t=P:problem=kreska pseudotaktowa	!
.	.	.	.	.	.	2d/	de-
!	!	!LO:TX:t=P:problem=kreska pseudotaktowa	!	!	!	!	!
.	.	4e\	-ti-	8c/L	noſ-	.	.
.	.	.	.	8B-/J	.	.	.
=85-	=85-	=85-	=85-	=85-	=85-	=85-	=85-
!	!	!	!	!LO:TX:t=P:problem=kreska pseudotaktowa	!	!	!
2r	.	4d/	-o-	0A/	-tram,	2d/	-pre-
.	.	4c/	.	.	.	.	.
1D/	de-	1d\	.	.	.	2.f\	-ca-
.	.	.	.	.	.	4g\	-ti-
!LO:TX:t=P:problem=kreska pseudotaktowa	!	!	!	!	!	!LO:TX:t=P:problem=kreska pseudotaktowa	!
2D/	-pre-	4c/	-nem	.	.	2a\	-o-
!	!	!LO:TX:t=P:problem=kreska pseudotaktowa	!	!	!	!	!
.	.	4B-/	.	.	.	.	.
=86-	=86-	=86-	=86-	=86-	=86-	=86-	=86-
2.F/	-ca-	2.A/	.	2r	.	2f\	-nem
.	.	.	.	2f\	de-	2.a\	.
4G/	-ti-	4B-/	.	.	.	.	.
!	!	!LO:TX:t=P:problem=kreska pseudotaktowa	!	!	!	!	!
1A\	-o-	1c\	.	2e/	.	.	.
.	.	.	.	.	.	4g\	.
!	!	!	!	!LO:TX:t=P:problem=kreska pseudotaktowa	!	!	!
.	.	.	.	2c/	-pre-	4a\	.
!	!	!	!	!	!	!LO:TX:t=P:problem=kreska pseudotaktowa	!
.	.	.	.	.	.	4f\	.
=87-	=87-	=87-	=87-	=87-	=87-	=87-	=87-
!LO:TX:t=P:problem=kreska pseudotaktowa	!	!	!	!	!	!	!
1G/	-nem	2B-/	.	2d/	-ca-	2.g\	.
*	*	*	*	*custos:G	*	*	*
.	.	0d\	noſ-	1B-/	-tio-	.	.
!	!	!	!	!	!	!LO:TX:t=P:problem=kreska pseudotaktowa	!
.	.	.	.	.	.	4a\	no-
2r	.	.	.	.	.	4b-\	.
.	.	.	.	.	.	4a\	.
*	*	*	*	*	*	*custos:g	*
*	*	*	*	*xywh-#227:1229,2016,4280,931	*	*	*
!	!	!	!	!LO:LB:g=original	!	!	!
*	*ij	*	*	*	*	*	*
1G/	de-	.	.	4G/	.	1b-\	.
!	!	!	!	!LO:TX:t=P:problem=kreska pseudotaktowa	!	!	!
.	.	.	.	4A/	.	.	.
=88-	=88-	=88-	=88-	=88-	=88-	=88-	=88-
.	.	.	.	4B-/	.	.	.
.	.	.	.	4c/	.	.	.
*	*	*	*	*	*	*xywh-#36:1250,2832,4247,1379	*
!	!	!	!	!	!	!LO:LB:g=original	!
!LO:TX:t=P:problem=kreska pseudotaktowa	!	!LO:TX:t=P:problem=kreska pseudotaktowa	!	!	!	!	!
2G/	-pre-	2B-/	-tram,	4d/	.	2g\	.
!	!	!	!	!LO:TX:t=P:problem=kreska pseudotaktowa	!	!	!
.	.	.	.	4e/	.	.	.
!	!	!	!	!	!	!LO:TX:t=P:problem=kreska pseudotaktowa	!
2F/	-ca-	2c/	.	1f\	.	2a\	.
2D/	-ti-	2d/	.	.	.	2.b-\	.
=89-	=89-	=89-	=89-	=89-	=89-	=89-	=89-
*custos:C	*	*	*	*	*	*	*
2G/	-o-	2B-/	.	2d/	-nem	.	.
.	.	.	.	.	.	4a\	.
*xywh-#594:5643,2749,4593,1521	*	*	*	*	*	*	*
!LO:LB:g=original	!	!	!	!	!	!	!
!LO:TX:t=P:problem=kreska pseudotaktowa	!	!LO:TX:t=P:problem=kreska pseudotaktowa	!	!	!	!	!
2C/	-nem	2c/	.	2e/	n(ost)-	1g\	.
*	*Xij	*	*	*	*	*	*
!	!	!	!	!LO:TX:t=P:problem=kreska pseudotaktowa	!	!	!
1D/	noſ-	1A/	.	1d/	-ram,	.	.
!	!	!	!	!	!	!LO:TX:t=P:problem=kreska pseudotaktowa	!
.	.	.	.	.	.	2f/	-ſtram,
=90-	=90-	=90-	=90-	=90-	=90-	=90-	=90-
*	*	*custos:B-	*	*	*	*	*
!LO:TX:t=P:problem=kreska pseudotaktowa	!	!	!	!	!	!	!
0G/	-tram,	2G/	.	2r	.	0g\	.
*	*	*xywh-#423:1238,1210,4338,944	*	*	*	*	*
!	!	!LO:LB:g=original	!	!	!	!	!
.	.	1B-/	qui	2d/	qui	.	.
!	!	!	!	!LO:TX:t=P:problem=kreska pseudotaktowa	!	!	!
.	.	.	.	1e-X\	ſe-	.	.
!	!	!LO:TX:t=P:problem=kreska pseudotaktowa	!	!	!	!	!
.	.	2G/	.	.	.	.	.
=91-	=91-	=91-	=91-	=91-	=91-	=91-	=91-
1r	.	2.B-/	ſe-	2d/	-des	2r	.
!	!	!	!	!	!	!LO:TX:t=P:problem=kreska pseudotaktowa	!
.	.	.	.	2d/	ad	2g\	qui
.	.	8A/L	-des	.	.	.	.
.	.	8G/J	.	.	.	.	.
2r	.	2F/	.	2f\	dex-	1a\	.
!LO:TX:t=P:problem=kreska pseudotaktowa	!	!LO:TX:t=P:problem=kreska pseudotaktowa	!	!LO:TX:t=P:problem=kreska pseudotaktowa	!	!	!
2D/	qui	2f\	.	2f\	-te-	.	.
=92-	=92-	=92-	=92-	=92-	=92-	=92-	=92-
!	!	!	!	!	!	!LO:TX:t=P:problem=w związku z pomyłką dwie nuty podpisane solmizacyjnie	!
1G/	ſe-	2f\	ad	2d/	-ra(m)	2b-\	ſe-
*	*	*	*	*custos:f	*	*	*
!	!	!	!	!LO:TX:t=P:problem=kreska pseudotaktowa	!	!LO:TX:t=P:problem=poprawka wysokości	!
.	.	2e\	dex-	2eny/	pa-	2g/	-des
*	*	*	*	*xywh-#227:1207,2710,4308,1010	*	*	*
!	!	!	!	!LO:LB:g=original	!	!	!
1F/	-des	4d\	-te-	4f\	.	1.a\	ad
.	.	4c/	.	4e\	.	.	.
.	.	2.f\	-ram	4d/	.	.	.
!	!	!	!	!LO:TX:t=P:problem=kreska pseudotaktowa	!	!	!
.	.	.	.	4c/	.	.	.
=93-	=93-	=93-	=93-	=93-	=93-	=93-	=93-
!LO:TX:t=P:problem=kreska pseudotaktowa	!	!	!	!	!	!	!
1D/	.	.	.	4d/	.	.	.
.	.	4e\	.	4c/	.	.	.
!	!	!	!	!	!	!LO:TX:t=P:problem=kreska pseudotaktowa	!
.	.	4d/	.	4B-/	.	2f/	.
!	!	!LO:TX:t=P:problem=kreska pseudotaktowa	!	!LO:TX:t=P:problem=kreska pseudotaktowa	!	!	!
.	.	4c/	.	4A/	.	.	.
2G/	ad	2d\	.	1B-/	.	1g\	dex-
2G/	dex-	2e\	.	.	.	.	.
=94-	=94-	=94-	=94-	=94-	=94-	=94-	=94-
!	!	!	!	!LO:TX:t=P:problem=kreska pseudotaktowa	!	!	!
2.F/	-te-	2.f\	.	1A/	-tris,	1.a\	-te-
!LO:TX:t=P:problem=kreska pseudotaktowa	!	!LO:TX:t=P:problem=kreska pseudotaktowa	!	!	!	!	!
4G/	-ram	4e\	pa-	.	.	.	.
4A/	.	2c/	-tris,	1r	.	.	.
4F/	.	.	.	.	.	.	.
2.G/	pa-	1e\	.	.	.	2.b-\	-ram
=95-	=95-	=95-	=95-	=95-	=95-	=95-	=95-
.	.	.	.	0r	.	.	.
4F/	.	.	.	.	.	4a\	.
!LO:TX:t=P:problem=kreska pseudotaktowa	!	!	!	!	!	!	!
2D/	.	1d\	.	.	.	4g\	.
!	!	!	!	!	!	!LO:TX:t=P:problem=kreska pseudotaktowa	!
.	.	.	.	.	.	4f\	pa-
1E/	.	.	.	.	.	1g\	.
!	!	!LO:TX:t=P:problem=kreska pseudotaktowa	!	!	!	!	!
.	.	2c/	.	.	.	.	.
=96-	=96-	=96-	=96-	=96-	=96-	=96-	=96-
*custos:d	*	*	*	*	*	*	*
*	*	*custos:f	*	*	*	*	*
!LO:TX:t=P:problem=kreska pseudotaktowa	!	!	!	!LO:TX:t=P:problem=kreska pseudotaktowa	!	!	!
1D/	-tris	1d\	.	0.a\	mi-	2.f/	.
*	*	*	*	*	*	*custos:d	*
!	!	!	!	!	!	!LO:TX:t=P:problem=kreska pseudotaktowa	!
.	.	.	.	.	.	4e/	.
*	*	*xywh-#423:1266,1996,4264,916	*	*	*	*xywh-#36:5758,640,4446,914	*
!	!	!LO:LB:g=original	!	!	!	!LO:PB:g=original	!
2r	.	2r	.	.	.	2.d/	.
*xywh-#595:1195,509,4216,954	*	*	*	*	*	*	*
!LO:PB:g=original	!	!	!	!	!	!	!
1d\	mi-	1f\	mi-	.	.	.	.
.	.	.	.	.	.	8c/L	.
.	.	.	.	.	.	8B-/J	.
=97-	=97-	=97-	=97-	=97-	=97-	=97-	=97-
!	!	!	!	!	!	!LO:TX:t=P:problem=kreska pseudotaktowa	!
.	.	.	.	.	.	1A/	-tris,
1c\	-ſe-	1e\	-ſe-	.	.	.	.
!	!	!	!	!LO:TX:t=P:problem=kreska pseudotaktowa	!	!LO:TX:a:t=4	!
.	.	.	.	1g\	-ſe-	1r	.
1B-\	-re-	1d\	-re-	.	.	.	.
=98-	=98-	=98-	=98-	=98-	=98-	=98-	=98-
.	.	.	.	1.f\	-re-	0r	.
!LO:TX:t=P:problem=kreska pseudotaktowa	!	!LO:TX:t=P:problem=kreska pseudotaktowa	!	!	!	!	!
2.A/	-re	2.c/	-re	.	.	.	.
4G/	.	4B-/	.	.	.	.	.
!LO:TX:t=P:problem=kreska pseudotaktowa	!	!	!	!	!	!	!
2.G/	no-	2.B-/	.	2.e/	-re	.	.
=99-	=99-	=99-	=99-	=99-	=99-	=99-	=99-
!	!	!	!	!	!	!LO:TX:t=P:problem=kreska pseudotaktowa	!
.	.	.	.	.	.	1r	.
4F/	.	4A/	no-	4d/	no-	.	.
4E/	.	4G/	.	1d/	.	.	.
!LO:TX:t=P:problem=kreska pseudotaktowa	!	!LO:TX:t=P:problem=kreska pseudotaktowa	!	!	!	!	!
4D/	.	4F/	.	.	.	.	.
1E/	.	2.G/	.	.	.	2r	.
*	*	*	*	*custos:d	*	*	*
!	!	!	!	!LO:TX:t=P:problem=kreska pseudotaktowa	!	!	!
.	.	.	.	2c/	.	1g\	mi-
!	!	!LO:TX:t=P:problem=kreska pseudotaktowa	!	!	!	!	!
.	.	4A/	.	.	.	.	.
!	!	!	!	!LO:PB:g=original	!	!	!
=100-	=100-	=100-	=100-	=100-	=100-	=100-	=100-
*	*	*	*	*xywh-#227:5730,576,4506,942	*	*	*
!LO:TX:t=P:problem=kreska pseudotaktowa	!	!	!	!LO:TX:t=P:problem=kreska pseudotaktowa	!	!	!
1D/	-bis,	4B-/	.	0d/	-bis,	.	.
.	.	4c/	.	.	.	.	.
!	!	!	!	!	!	!LO:TX:t=P:problem=kreska pseudotaktowa	!
.	.	4d\	.	.	.	2f\	-ſe-
.	.	4e\	.	.	.	.	.
0r	.	2f\	.	.	.	2d/	-re-
.	.	1d\	.	.	.	2f\	-re
=101-	=101-	=101-	=101-	=101-	=101-	=101-	=101-
.	.	.	.	1r	.	1e\	no-
.	.	2c/	-bis,	.	.	.	.
!	!	!LO:TX:t=P:problem=kreska pseudotaktowa	!	!	!	!LO:TX:t=P:problem=kreska pseudotaktowa	!
2r	.	0d\	.	2r	.	00d/	-bis,-
1G/	Quo-	.	.	1b-\	Quo-	.	.
=102-	=102-	=102-	=102-	=102-	=102-	=102-	=102-
!LO:TX:t=P:problem=kreska pseudotaktowa	!	!	!	!LO:TX:t=P:problem=kreska pseudotaktowa	!	!	!
2F/	-ni-	.	.	2a\	.	.	.
2G/	-a(m)	0r	.	2g\	-ni-	.	.
!	!	!	!	!LO:TX:t=P:problem=kreska pseudotaktowa	!	!	!
2D/	tu	.	.	2f\	-am	.	.
=103-	=103-	=103-	=103-	=103-	=103-	=103-	=103-
2G/	ſo-	.	.	2b-\	tu	.	.
*custos:B-	*	*	*	*	*	*	*
!LO:TX:t=P:problem=kreska pseudotaktowa	!	!	!	!	!	!	!
2F/	-lus	.	.	2.a\	ſo-	.	.
*xywh-#595:1138,1279,4256,920	*	*	*	*	*	*	*
!LO:LB:g=original	!	!	!	!	!	!	!
1B-\	ſan-	2r	.	.	.	2r	.
.	.	.	.	4g\	-lus	.	.
!	!	!	!	!LO:TX:t=P:problem=kreska pseudotaktowa	!	!	!
.	.	1d\	Quo-	2g\	ſ(an)-	1g\	-Quo-
=104-	=104-	=104-	=104-	=104-	=104-	=104-	=104-
!	!	!	!	!LO:TX:t=P:problem=kreska pseudotaktowa	!	!	!
1A\	.	.	.	1a\	-ctus,	.	.
!	!	!LO:TX:t=P:problem=kreska pseudotaktowa	!	!	!	!	!
.	.	2c/	-ni-	.	.	2f\	-ni-
*	*	*custos:B-	*	*	*	*	*
!LO:TX:t=P:problem=kreska pseudotaktowa	!	!	!	!	!	!LO:TX:t=P:problem=kreska pseudotaktowa	!
1G/	-ctus,	2d/	-a(m)	2r	.	1g\	-a(m)
*	*	*xywh-#423:1261,2720,4242,1380	*	*	*	*	*
!	!	!LO:LB:g=original	!	!	!	!	!
!	!	!	!	!LO:TX:t=P:problem=kreska pseudotaktowa	!	!	!
.	.	2B-/	tu	2d/	tu	.	.
=105-	=105-	=105-	=105-	=105-	=105-	=105-	=105-
0r	.	2e-X\	ſo-	2c/	ſo-	2G/	tu
!	!	!LO:TX:t=P:problem=kreska pseudotaktowa	!	!LO:TX:t=P:problem=kreska pseudotaktowa	!	!	!
.	.	2d\	-lus	2d/	-lus	2g\	ſo-
.	.	1g\	.	1G/	ſanc-	2f\	-lus
!	!	!	!	!	!	!LO:TX:t=P:problem=kreska pseudotaktowa	!
.	.	.	.	.	.	2b-\	ſ(an)-
=106-	=106-	=106-	=106-	=106-	=106-	=106-	=106-
!	!	!	!	!LO:TX:t=P:problem=kreska pseudotaktowa	!	!LO:TX:t=P:problem=kreska pseudotaktowa	!
2r	.	2.f\	ſan-	1d/	-tus,	00a\	-ctus,
1d\	tu	.	.	.	.	.	.
.	.	8eny\L	-tuS;	.	.	.	.
!	!	!LO:TX:t=P:problem=kreska pseudotaktowa	!	!	!	!	!
.	.	8d\J	.	.	.	.	.
.	.	1e\	.	1r	.	.	.
!LO:TX:t=P:problem=kreska pseudotaktowa	!	!	!	!	!	!	!
2c\	ſo-	.	.	.	.	.	.
=107-	=107-	=107-	=107-	=107-	=107-	=107-	=107-
!	!	!LO:TX:t=P:problem=kreska pseudotaktowa	!	!	!	!	!
2d\	-lus	1d\	.	2r	.	.	.
2.f\	.	.	.	2.d/	tu	.	.
.	.	0r	.	.	.	.	.
*	*	*	*	*custos:f	*	*	*
4e\	do-	.	.	4c/	.	.	.
*	*	*	*	*xywh-#227:5848,1316,4206,965	*	*	*
!	!	!	!	!LO:LB:g=original	!	!	!
4d\	.	.	.	1f\	ſo-	.	.
!LO:TX:t=P:problem=kreska pseudotaktowa	!	!	!	!	!	!	!
4c\	.	.	.	.	.	.	.
=108-	=108-	=108-	=108-	=108-	=108-	=108-	=108-
2d\	.	.	.	.	.	2r	.
*	*	*	*	*	*	*custos:b-	*
!	!	!	!	!LO:TX:t=P:problem=kreska pseudotaktowa	!	!LO:TX:t=P:problem=kreska pseudotaktowa	!
2c\	.	.	.	2e/	-lus	2a\	tu
*	*	*	*	*	*	*xywh-#36:5758,1368,4344,908	*
!	!	!	!	!	!	!LO:LB:g=original	!
1B-\	-mi-	2r	.	1d/	do-	2b-\	ſo-
!	!	!	!	!	!	!LO:TX:t=P:problem=kreska pseudotaktowa	!
.	.	1d\	tu	.	.	2g\	-lus
=109-	=109-	=109-	=109-	=109-	=109-	=109-	=109-
!LO:TX:t=P:problem=kreska pseudotaktowa	!	!	!	!	!	!	!
1A\	-nus,	.	.	1e\	.	2a\	do-
!	!	!LO:TX:t=P:problem=kreska pseudotaktowa	!	!	!	!	!
.	.	2c/	.	.	.	2.a\	-mi-
!	!	!	!	!LO:TX:t=P:problem=kreska pseudotaktowa	!	!	!
1r	.	2d\	ſo-	0d/	-mi-	.	.
.	.	.	.	.	.	4g\	.
.	.	2.f\	-lus	.	.	4f/	.
!	!	!	!	!	!	!LO:TX:t=P:problem=kreska pseudotaktowa	!
.	.	.	.	.	.	4e/	.
=110-	=110-	=110-	=110-	=110-	=110-	=110-	=110-
0r	.	.	.	.	.	2d/	.
.	.	4e\	do-	.	.	.	.
.	.	1d\	-mi-	.	.	2f/	.
.	.	.	.	1A/	-nus,	1e\	.
!	!	!LO:TX:t=P:problem=kreska pseudotaktowa	!	!	!	!	!
.	.	2c/	.	.	.	.	.
=111-	=111-	=111-	=111-	=111-	=111-	=111-	=111-
*custos:G	*	*	*	*	*	*	*
!LO:TX:t=P:problem=kreska pseudotaktowa	!	!	!	!	!	!LO:TX:t=P:problem=kreska pseudotaktowa	!
1D/	tu	2d/	-nus,	2r	.	0d/	-nus,
!	!	!	!	!LO:TX:t=P:problem=kreska pseudotaktowa	!	!	!
.	.	2A/	tu	2f\	tu	.	.
*xywh-#595:1150,2053,4335,909	*	*	*	*	*	*	*
!	!	!LO:TX:t=P:problem=kreska pseudotaktowa	!	!	!	!	!
!LO:LB:g=original	!	!	!	!	!	!	!
2.G/	ſo-	1B-/	ſo-	1g\	ſo-	.	.
!LO:TX:t=P:problem=kreska pseudotaktowa	!	!	!	!	!	!	!
4E-X/	-lus	.	.	.	.	.	.
=112-	=112-	=112-	=112-	=112-	=112-	=112-	=112-
*	*	*custos:B-	*	*	*	*	*
2F/	al-	2A/	-lus	2f\	-lus	1r	.
*	*	*xywh-#423:5808,616,4485,955	*	*	*	*	*
!	!	!LO:PB:g=original	!	!	!	!	!
2G/	-tiſ-	2.B-/	al-	2.e/	al-	.	.
4G/	.	.	.	.	.	2r	.
4F/	.	4A/	-tiſ-	4d/	-tiſ-	.	.
4Eny/	.	1A/	-si-	1d/	-si-	2d/	tu
!LO:TX:t=P:problem=kreska pseudotaktowa	!	!	!	!	!	!	!
4D/	.	.	.	.	.	.	.
=113-	=113-	=113-	=113-	=113-	=113-	=113-	=113-
!	!	!	!	!	!	!LO:TX:t=P:problem=kreska pseudotaktowa	!
2E/	.	.	.	.	.	1g\	ſo-
!	!	!LO:TX:t=P:problem=kreska pseudotaktowa	!	!LO:TX:t=P:problem=kreska pseudotaktowa	!	!	!
2E/	-ſi-	2G/	.	2c/	-mus,	.	.
!LO:TX:t=P:problem=kreska pseudotaktowa	!	!	!	!	!	!	!
0.D/	-mus	1A/	-mus	2d,/	.	2f\	-lus
.	.	.	.	2.f\	al-	2d/	al-
=114-	=114-	=114-	=114-	=114-	=114-	=114-	=114-
.	.	0d\	Ie-	.	.	2.f\	-tiſ-
*	*	*	*	*custos:a	*	*	*
.	.	.	.	4g\	.	.	.
*	*	*	*	*xywh-#227:5860,2033,4229,1027	*	*	*
!	!	!	!	!LO:LB:g=original	!	!	!
!	!	!	!	!LO:TX:t=P:problem=kreska pseudotaktowa	!	!	!
.	.	.	.	2.a\	-tiſ-	.	.
!	!	!	!	!	!	!LO:TX:t=P:problem=kreska pseudotaktowa	!
.	.	.	.	.	.	4g\	-si-
.	.	.	.	.	.	1a\	-mus;
.	.	.	.	4g\	-si-	.	.
.	.	.	.	4f\	.	.	.
!	!	!	!	!LO:TX:t=P:problem=kreska pseudotaktowa	!	!	!
.	.	.	.	4e\	.	.	.
=115-	=115-	=115-	=115-	=115-	=115-	=115-	=115-
*	*	*lig	*	*	*	*	*
1G/	Ie-	1B-l/	-ſu	2d/	.	1.b-\	.
.	.	.	.	2e/	.	.	.
!	!	!	!	!LO:TX:t=P:problem=kreska pseudotaktowa	!	!	!
1F/	-ſu	1c\	.	1f\	-mus,	.	.
.	.	.	.	.	.	2a\	Ie-
*	*	*Xlig	*	*	*	*	*
=116-	=116-	=116-	=116-	=116-	=116-	=116-	=116-
*	*	*	*	*	*	*custos:g	*
!	!	!LO:TX:t=P:problem=kreska pseudotaktowa	!	!	!	!LO:TX:t=P:problem=kreska pseudotaktowa	!
2.B-\	Chri-	0.d\	Chri-	2r	.	1f\	-ſu
.	.	.	.	1B-/	Ie-	.	.
!LO:TX:t=P:problem=kreska pseudotaktowa	!	!	!	!	!	!	!
4A/	.	.	.	.	.	.	.
*	*	*	*	*	*	*xywh-#36:5713,2100,4349,954	*
!	!	!	!	!	!	!LO:LB:g=original	!
4G/	.	.	.	.	.	2g\	Chri-
*custos:G	*	*	*	*	*	*	*
4F/	.	.	.	.	.	.	.
*xywh-#595:1200,2739,4256,1173	*	*	*	*	*	*	*
!LO:LB:g=original	!	!	!	!	!	!	!
!	!	!	!	!LO:TX:t=P:problem=kreska pseudotaktowa	!	!	!
1G/	.	.	.	2B-/	-ſu	1b-\	.
=117-	=117-	=117-	=117-	=117-	=117-	=117-	=117-
.	.	.	.	1G/	Chri-	.	.
4F/	.	.	.	.	.	4a\	-ſte;
!LO:TX:t=P:problem=kreska pseudotaktowa	!	!	!	!	!	!	!
4E/	.	.	.	.	.	4g\	.
!LO:TX:t=P:problem=kreska pseudotaktowa	!	!LO:TX:t=P:problem=kreska pseudotaktowa	!	!LO:TX:t=P:problem=kreska pseudotaktowa	!	!	!
1D/	-ſte	1d\	-ſte,	1A/	-ſte,	1f\	.
=118-||	=118-||	=118-||	=118-||	=118-	=118-	=118-||	=118-||
*M3/1	*	*M3/1	*	*	*	*M3/1	*
*col	*	*col	*	*col	*	*	*
1D/	cum	1A/	Cum	1d/	cum	00.r	.
1D/	ſan-	1A/	ſ(an)-	1d/	ſanc-	.	.
1D/	-cto	1A/	-cto	1d/	-to	.	.
=119-	=119-	=119-	=119-	=119-	=119-	=119-	=119-
0G/	ſp(i-	0B-/	ſpi-	0e-X\	ſpi-	.	.
1G/	-ri-	1B-/	-ri-	1d/	-ri-	.	.
=120-	=120-	=120-	=120-	=120-	=120-	=120-	=120-
*	*	*	*	*custos:d	*	*	*
0D/	-t)u	0A/	-tu,	0d/	-tu,	1f\	Cum
.	.	.	.	.	.	1f\	ſanc-
1r	.	1r	.	1r	.	1f\	-to
!	!	!	!	!LO:LB:g=original	!	!	!
=121-	=121-	=121-	=121-	=121-	=121-	=121-	=121-
*	*	*	*	*xywh-#227:5764,2767,4573,1479	*	*	*
1G/	in	1B-/	in	1d/	in	0g\	ſpi-
1G/	glo-	1B-/	glo-	1d/	glo-	.	.
*	*	*custos:A	*	*	*	*	*
1G/	-ri-	1B-/	-ri-	1d/	-ri-	1g\	-ri-
!	!	!LO:LB:g=original	!	!	!	!	!
=122-	=122-	=122-	=122-	=122-	=122-	=122-	=122-
*	*	*xywh-#423:5775,1402,4225,848	*	*	*	*	*
!	!	!	!	!LO:TX:t=P:problem=brak kreski taktowej	!	!	!
0D/	-a	0A/	-a	00d/	-a	0f\	-tu,
!LO:TX:t=P:problem=brak kreski taktowej	!	!LO:TX:t=P:problem=brak kreski taktowej	!	!	!	!	!
0G/	De-	0B-/	de-	.	.	1r	.
=123-	=123-	=123-	=123-	=123-	=123-	=123-	=123-
.	.	.	.	.	.	1g\	in
1F/	-i	1c\	-i	0f\	de-	1a\	glo-
*custos:A	*	*	*	*	*	*	*
!LO:TX:t=P:problem=brak kreski taktowej	!	!LO:TX:t=P:problem=brak kreski taktowej	!	!	!	!	!
0B-\	pa-	0d\	pa-	.	.	1b-\	-ri-
=124-	=124-	=124-	=124-	=124-	=124-	=124-	=124-
.	.	.	.	1B-/	-i	1g\	-a
*xywh-#595:5653,650,4391,982	*	*	*	*	*	*	*
!LO:PB:g=original	!	!	!	!	!	!	!
1A\	-tris	1c\	-tris	1c/	pa-	1a\	de-
*	*	*	*	*	*	*custos:g	*
!	!	!	!	!LO:TX:t=P:problem=brak kreski taktowej	!	!	!
1.G/	.	1.B-/	.	0d/	-tris,	1b-\	-i
!	!	!	!	!	!	!LO:LB:g=original	!
=125-	=125-	=125-	=125-	=125-	=125-	=125-	=125-
*	*	*	*	*	*	*xywh-#36:5718,2827,4332,1453	*
.	.	.	.	.	.	0g\	pa-
2F/	A-	2A/	pa-	.	.	.	.
1E/	.	1G/	-tris	1c/,	.	.	.
1D/	-men	1A/	.	1d/	de-	1f\	-triS
=126-	=126-	=126-	=126-	=126-	=126-	=126-	=126-
0G/	.	0B-/	.	1d/	-i	0b-\	.
.	.	.	.	1d/	p(at)-	.	.
1F/	a-	2c/	.	1f\	-riſ	1a\	.
.	.	2B-/	A-	.	.	.	.
=127-	=127-	=127-	=127-	=127-	=127-	=127-	=127-
1G/	.	2A/	.	1d/	.	1.g\	.
.	.	2G/	.	.	.	.	.
!	!	!LO:TX:t=P:problem=brak kreski taktowej	!	!	!	!	!
0D/	.	0A/	.	0d/	A-	.	.
.	.	.	.	.	.	4f\	A-
.	.	.	.	.	.	4e\	.
.	.	.	.	.	.	1f\	.
!	!	!	!	!	!	!LO:TX:t=P:problem=brak kreski taktowej	!
*Xcol	*	*Xcol	*	*Xcol	*	*	*
=128-	=128-	=128-	=128-	=128-	=128-	=128-	=128-
0.Gl\	-men:	0.Gl/	-men:	0.dl/	-men	0.g\;<	-men
==	==	==	==	==	==	==	==
*-	*-	*-	*-	*-	*-	*-	*-
!!!system-decoration: s1,s2,s3,s4
!!!RDF**kern: > = above
!!!RDF**kern: < = below
!!!RDF**kern: l = terminal long
!!!ENC: Mateusz Solarz
!!!END: 2022-02-04
!!!ENC: Leszek Kubiak
!!!END: 2022-02-10
!!!ENC-iiif: Antoni Szymański
!!!END-iiif: 2022-09-03
!!!YEC: Copyright 2022 Narodowy Instytut Fryderyka Chopina (https://polishscores.org)
!!!YEM: License CC-BY-4.0 (https://creativecommons.org/licenses/by/4.0)
!!!IIIF: https://repozytorium.nifc.pl/islandora/object/pl-kk%3A1/datastream/IIIF/view
